X: 1083
T: Amazone
R: jig
M: 6/8
K: Aminor
|:e2e edc|c3 cde|fed edc|d2c Bcd|
e2e edc|c3 cde|fed edc|B6:|
|:A2B- Bc2|d6|ege dcB|c2B- BAE|
A2B- Bc2|d6|ege dcB|A6:|

